material/.icons/material/folder-edit.svg

<svg xmlns="http://www.w3.org/2000/svg" viewBox="0 0 24 24"><path d="M3 4c-1.11 0-2 .89-2 2v12a2 2 0 002 2h8v-1.89l10-10V8a2 2 0 00-2-2h-8L9 4H3m18.04 7.13c-.14 0-.28.06-.39.17l-1 1 2.05 2.05 1-1c.22-.21.22-.56 0-.77l-1.28-1.28a.533.533 0 00-.38-.17m-1.97 1.75L13 18.94V21h2.06l6.06-6.07-2.05-2.05z"/></svg>

<?xml version="1.0" encoding="UTF-8"?><!DOCTYPE svg PUBLIC "-//W3C//DTD SVG 1.1//EN" "http://www.w3.org/Graphics/SVG/1.1/DTD/svg11.dtd"><svg xmlns="http://www.w3.org/2000/svg" xmlns:xlink="http://www.w3.org/1999/xlink" version="1.1" id="mdi-folder-edit" width="24" height="24" viewBox="0 0 24 24"><path d="M3,4C1.89,4 1,4.89 1,6V18A2,2 0 0,0 3,20H11V18.11L21,8.11V8C21,6.89 20.1,6 19,6H11L9,4H3M21.04,11.13C20.9,11.13 20.76,11.19 20.65,11.3L19.65,12.3L21.7,14.35L22.7,13.35C22.92,13.14 22.92,12.79 22.7,12.58L21.42,11.3C21.31,11.19 21.18,11.13 21.04,11.13M19.07,12.88L13,18.94V21H15.06L21.12,14.93L19.07,12.88Z" /></svg>
